Yaru++/apps/scalable/stacer.svg

<svg enable-background="new" height="256" viewBox="0 0 256 256" width="256" xmlns="http://www.w3.org/2000/svg" xmlns:xlink="http://www.w3.org/1999/xlink"><filter id="a" color-interpolation-filters="sRGB" height="1.024" width="1.024" x="-.01" y="-.01"><feGaussianBlur stdDeviation="1.12"/></filter><filter id="b" color-interpolation-filters="sRGB" height="1.096" width="1.096" x="-.05" y="-.05"><feGaussianBlur stdDeviation="4.48"/></filter><linearGradient id="c" gradientUnits="userSpaceOnUse" x1="12.2800922695" x2="107.2798382305" xlink:href="#d" y1="51.4152693285" y2="51.4152693285"/><linearGradient id="d"><stop offset="0" stop-color="#2be8c9"/><stop offset="1" stop-color="#fff"/></linearGradient><linearGradient id="e" gradientUnits="userSpaceOnUse" x1="145.57515" x2="190.577364" xlink:href="#d" y1="108.0422712" y2="173.0454692"/><circle cx="128.752" cy="127.248" filter="url(#b)" opacity=".1" r="112"/><circle cx="128.752" cy="125.248" filter="url(#a)" opacity=".1" r="112"/><circle cx="128.752" cy="123.248" opacity=".1" r="114"/><circle cx="-128.752" cy="-123.248" fill="#3c5771" r="112" transform="scale(-1)"/><path d="m128.752 11.248007a112 112 0 0 0 -112 111.999993 112 112 0 0 0 .04102 1.16992 112 112 0 0 1 111.95898-111.169913 112 112 0 0 1 111.95898 110.830073 112 112 0 0 0 .041-.83008 112 112 0 0 0 -112-111.999993z" fill="#fff" opacity=".3"/><path d="m128.752 235.248a112 112 0 0 1 -112-112 112 112 0 0 1 .04102-1.16992 112 112 0 0 0 111.95898 111.16992 112 112 0 0 0 111.95898-110.83008 112 112 0 0 1 .041.83008 112 112 0 0 1 -112 112z" opacity=".2"/><g enable-background="new" transform="matrix(4.2931454 0 0 4.2931454 -13.543252 -1006.613)"><path d="m30.453262 91.060333a44.782093 44.782092 0 0 1 -15.45539-33.843461 44.782093 44.782092 0 0 1 44.782095-44.782098 44.782093 44.782092 0 0 1 44.782093 44.782098 44.782093 44.782092 0 0 1 -15.453791 33.842084" fill="none" stroke="url(#c)" stroke-width="5.435812" transform="matrix(.49037779 0 0 .49037779 3.829987 234.97387)"/><path d="m125.57422 68.255859v64.787111l1.71875 1.25c.12172-.52367.8457-3.64453.8457-3.64453l43.13867 33.7207a60.002949 60.002949 0 0 0 12.29883-36.21094 60.002949 60.002949 0 0 0 -58.00195-59.902341z" fill="url(#e)" opacity=".3" transform="matrix(.26457031 0 0 .26457031 -.078443 229.06261)"/><g fill="#fff" transform="matrix(.52338117 0 0 .52338117 -.623135 228.37096)"><path d="m65.518735 29.4668v6h-2v-6z" fill="#fff"/><path d="m66.816055 28.13496v6h-2v-6z" fill="#fff" transform="matrix(.70786839 .70634435 -.70634435 .70786839 63.245127 -26.684109)"/><path d="m65.614881 28.283085.411849 5.985849-1.995283.137283-.411849-5.985849z" fill="#529be0" transform="matrix(-.77795657 .62831805 -.62831805 -.77795657 158.410872 73.584699)"/><g fill="#fff" transform="matrix(-1 0 0 -1 128.769908 130.66774)"><path d="m91.389269 39.983398-4.461137 4.012262-1.33742-1.487046 4.461137-4.012262z" fill="#529be0"/><g fill="#fff"><g transform="matrix(.0090636 .99995892 -.99995892 .0090636 126.292311 .27419)"><path d="m65.058689 26.005739-.06351 5.999664-1.999888-.02117.06351-5.999664z"/><path d="m64.448825 93.288828-.06351 5.999664-1.999888-.02117.06351-5.999664z"/></g><path d="m66.167865 28.910898v6h-2v-6z" transform="matrix(-.72704722 .68658746 -.68658746 -.72704722 156.566762 67.55645)"/></g></g></g><circle cx="33.78079127983" cy="263.30986021736" opacity=".3" r="2.61714626523" stroke-width=".49037779"/><path d="m34.522122 263.24701s6.029364 4.69649 7.887039 6.38851c1.857672 1.69202 3.444006 3.52287 3.444006 3.52287s-2.095281-1.08637-4.337872-2.60272c-2.24259-1.51635-8.912353-6.75657-8.912353-6.75657l1.261927-1.39337z" fill="#2ddab8"/><circle cx="33.411" cy="263.529" r="2.617"/><path d="m94.375 200.70508c-1.672257 0-2.953832.3421-3.845703 1.02734-.891871.68525-1.337891 1.66409-1.337891 2.9375 0 1.01645.319096 1.82424.957032 2.42383.644129.59958 1.659521 1.03645 3.046874 1.31055l1.384766.2832c.842323.17131 1.402931.36504 1.681641.58203.284903.21699.427734.52605.427734.92578 0 .44541-.208079.78751-.623047 1.02735-.414968.23983-1.012582.35937-1.792968.35937-.768 0-1.56655-.10722-2.396485-.32422-.823742-.22271-1.678776-.55234-2.564453-.98633v2.78516c.885677.30265 1.770573.52941 2.65625.68359.885678.15419 1.768955.23243 2.648438.23243 1.864257 0 3.248086-.34209 4.152343-1.02735.910453-.69095 1.365239-1.74187 1.365239-3.15234 0-1.07355-.324291-1.90191-.974614-2.48438-.650321-.58245-1.746868-1.01721-3.289062-1.30273l-1.523438-.2832c-.724644-.13705-1.227148-.29789-1.505859-.48633-.272516-.19415-.408203-.46403-.408203-.80664 0-.45683.204507-.79276.613281-1.00977.408774-.21699 1.039821-.32617 1.894531-.32617.644128 0 1.330042.08033 2.054688.24023.724644.15989 1.466708.39687 2.228515.71094v-2.70703c-.860904-.21126-1.692886-.3679-2.498047-.4707-.805161-.10851-1.589756-.16211-2.351562-.16211zm41.82617 0c-2.31019 0-4.14199.5956-5.49219 1.78906-1.35019 1.18776-2.02343 2.80335-2.02343 4.84766 0 2.0386.67324 3.65613 2.02343 4.84961 1.3502 1.18776 3.182 1.78125 5.49219 1.78125.7742 0 1.51626-.08034 2.22852-.24024.71226-.15988 1.39622-.39687 2.05273-.71094v-2.64648c-.66271.41685-1.31485.72185-1.95898.91602-.64413.19415-1.3229.29101-2.03516.29101-1.27587 0-2.27892-.37709-3.00976-1.13086s-1.09571-1.79027-1.09571-3.10937c0-1.32481.36487-2.36342 1.09571-3.11719s1.73389-1.13086 3.00976-1.13086c.71226 0 1.39103.09685 2.03516.29102.64413.19415 1.29627.49916 1.95898.91601v-2.64648c-.65651-.31407-1.34047-.55105-2.05273-.71094s-1.45432-.23828-2.22852-.23828zm-34.57031.23047v2.49218h4.60742v10.29688h3.57813v-10.29688h4.59765v-2.49218zm16.62109 0-5.13867 12.78906h3.5957l.88282-2.33008h5.59375l.87304 2.33008h3.59571l-5.13868-12.78906zm25.20508 0v12.78906h9.85547v-2.49414h-6.2793v-2.92774h5.71289v-2.49414h-5.71289v-2.38086h6.07618v-2.49218zm13.00586 0v12.78906h3.57617v-4.83984h1.01367c.5822 0 1.04574.11744 1.39258.35156.35303.23413.70037.67099 1.04102 1.31055l1.6914 3.17773h3.8086l-1.94141-3.63281c-.39638-.73664-.78949-1.28478-1.17969-1.64453-.384-.36545-.82125-.60032-1.31054-.70313.89187-.25697 1.5583-.65478 1.99804-1.19726.44594-.54249.66797-1.23691.66797-2.08204 0-1.22202-.42654-2.11631-1.28125-2.68164-.84851-.56532-2.18657-.84765-4.01367-.84765zm3.57617 2.39062h1.50586c.74942 0 1.28536.12374 1.60742.375.32826.25126.49219.66949.49219 1.25195 0 .58817-.16393 1.01062-.49219 1.26758-.32206.25696-.858.38477-1.60742.38477h-1.50586zm-39.65039.60742 1.89453 5.08789h-3.79882z" fill="#fff" transform="matrix(.2329294502 0 0 .23292945001 3.15462238769 234.46981282156)"/></g></svg>

<svg xmlns="http://www.w3.org/2000/svg" xmlns:xlink="http://www.w3.org/1999/xlink" style="enable-background:new" width="256" height="256" version="1.0" viewBox="0 0 256 256">
 <title id="title4162">
  Adwaita Icon Template
 </title>
 <defs>
  <linearGradient id="linearGradient950">
   <stop style="stop-color:#9a9996" id="stop946" offset="0"/>
   <stop style="stop-color:#77767b" id="stop948" offset="1"/>
  </linearGradient>
  <linearGradient id="linearGradient1001" x1="1660.857" x2="1662.99" y1="806.297" y2="812.882" gradientTransform="matrix(1.8293937,-0.81599442,0.81599442,1.8293937,-3645.9624,100.02949)" gradientUnits="userSpaceOnUse" xlink:href="#linearGradient950"/>
  <clipPath id="clipPath5154" clipPathUnits="userSpaceOnUse">
   <circle style="fill:url(#radialGradient5158)" cx="128" cy="924.362" r="109.647"/>
  </clipPath>
  <clipPath id="clipPath977" clipPathUnits="userSpaceOnUse">
   <circle style="fill:url(#radialGradient5158)" cx="128" cy="924.362" r="109.647"/>
  </clipPath>
  <clipPath id="clipPath4688" clipPathUnits="userSpaceOnUse">
   <path style="fill:url(#radialGradient4692);stroke:#a7003f;stroke-linecap:round;stroke-linejoin:round" d="m 106.42383,889.60156 c -2.2448,-0.0524 -4.09304,1.75264 -4.09375,3.99805 v 32.64453 32.64453 c -4e-5,3.07923 3.33305,5.004 6,3.46485 l 28.26953,-16.32227 28.27148,-16.32227 c 2.66559,-1.54001 2.66559,-5.38772 0,-6.92773 l -28.27148,-16.32227 -28.26953,-16.32226 c -0.58054,-0.3353 -1.23603,-0.51932 -1.90625,-0.53516 z"/>
  </clipPath>
  <clipPath id="clipPath4564" clipPathUnits="userSpaceOnUse">
   <circle style="fill:url(#radialGradient4568)" cx="128" cy="924.362" r="109.647"/>
  </clipPath>
  <clipPath id="clipPath6215" clipPathUnits="userSpaceOnUse">
   <path style="fill:url(#radialGradient6219)" d="m 105.17325,806.18572 c -3.06859,0.56361 -6.11393,1.24721 -9.129005,2.04923 -3.838255,1.06506 -7.62084,2.32142 -11.333578,3.76438 -3.712189,1.44307 -7.34989,3.07087 -10.899472,4.87732 -3.549153,1.80656 -7.005749,3.78947 -10.35684,5.94129 -3.351877,2.15253 -6.593991,4.47137 -9.714191,6.94783 -3.119992,2.47544 -6.114241,5.10535 -8.971529,7.87988 -0.367219,0.38909 -0.731819,0.78065 -1.093777,1.17464 2.60205,17.85956 16.832359,40.03752 30.863064,55.74236 -4.76734,8.84435 -7.265993,18.73329 -7.272057,28.78068 0.02104,2.87431 0.246096,5.7435 0.673482,8.58593 -20.257302,-9.18513 -43.077023,-26.53494 -52.798465,-47.36396 -0.440667,1.15171 -0.863474,2.31018 -1.268271,3.47498 -1.176789,3.80495 -2.162562,7.66637 -2.953625,11.56979 -0.79154,3.90311 -1.3874065,7.84335 -1.7853678,11.80598 -0.39733,3.96334 -0.5961891,7.94407 -0.5958321,11.92728 -4.394e-4,2.81936 0.098928,5.63785 0.2979155,8.45018 0.282275,3.97319 0.763088,7.92978 1.4406374,11.85493 0.625626,3.51826 1.408798,7.00668 2.347153,10.45473 16.778133,6.68355 43.114514,5.45001 63.748015,1.14301 6.818545,11.02763 16.987182,19.58379 29.018153,24.41667 -18.071844,12.93645 -44.490188,24.02095 -67.37308,22.03245 1.384097,1.665 2.813203,3.2921 4.285735,4.8794 2.774977,2.8571 5.691103,5.5737 8.737453,8.1395 3.046107,2.5658 6.218619,4.9777 9.505651,7.2266 3.287242,2.2488 6.684891,4.3319 10.180217,6.2413 3.495379,1.9096 7.084075,3.6433 10.752641,5.1944 3.66896,1.5509 7.413193,2.9174 11.218668,4.0942 1.438565,0.3959 2.884421,0.7648 4.336807,1.1066 14.138748,-11.1844 26.206378,-34.5828 32.780368,-54.56406 12.95816,-0.38251 25.45395,-4.90132 35.65955,-12.89544 2.15922,22.12638 -1.46693,50.5581 -14.64692,69.3832 3.06859,-0.5636 6.11393,-1.2473 9.129,-2.0493 3.83826,-1.0651 7.62084,-2.3214 11.33358,-3.7644 3.71219,-1.4431 7.34989,-3.0709 10.89947,-4.8773 3.54915,-1.8066 7.00575,-3.7895 10.35684,-5.9413 3.35188,-2.1525 6.59399,-4.4714 9.71419,-6.9478 3.11999,-2.4754 6.11424,-5.1054 8.97153,-7.8799 0.36722,-0.3891 0.73182,-0.7806 1.09378,-1.1746 -2.60204,-17.85957 -16.83236,-40.03755 -30.86307,-55.74238 4.76735,-8.84435 7.266,-18.7333 7.27207,-28.78069 -0.021,-2.8743 -0.24611,-5.74349 -0.6735,-8.58592 20.25731,9.18513 43.07704,26.53494 52.79848,47.36396 0.44067,-1.15171 0.86347,-2.31018 1.26827,-3.47499 1.17679,-3.80495 2.16256,-7.66636 2.95362,-11.56978 0.79154,-3.90311 1.38741,-7.84335 1.78537,-11.80598 0.39733,-3.96334 0.59619,-7.94408 0.59583,-11.92729 4.4e-4,-2.81936 -0.0989,-5.63784 -0.29791,-8.45017 -0.28228,-3.97319 -0.76309,-7.92978 -1.44064,-11.85493 -0.62776,-3.53416 -1.41449,-7.03823 -2.35779,-10.50154 -20.56165,-7.32804 -45.89823,-4.79548 -63.74906,-1.11372 -6.81835,-11.01918 -16.98234,-19.56874 -29.00647,-24.39915 18.07184,-12.93645 44.49019,-24.02091 67.37307,-22.03241 -1.38409,-1.66502 -2.8132,-3.2921 -4.28573,-4.87944 -2.77498,-2.85712 -5.6911,-5.57368 -8.73745,-8.13949 -3.04611,-2.56581 -6.21862,-4.97769 -9.50565,-7.22659 -3.28724,-2.24885 -6.68489,-4.3319 -10.18022,-6.24135 -3.49538,-1.90963 -7.08407,-3.64325 -10.75264,-5.19438 -3.66896,-1.55092 -7.41319,-2.91736 -11.21867,-4.09421 -1.42662,-0.39262 -2.86041,-0.75869 -4.30063,-1.09804 -14.14688,11.18369 -26.2293,34.57475 -32.8107,54.55552 -12.96018,0.38127 -25.4582,4.90015 -35.665394,12.89544 -2.15922,-22.12637 1.466931,-50.55807 14.646924,-69.38315 z"/>
  </clipPath>
  <linearGradient id="linearGradient954">
   <stop id="stop950" offset="0" style="stop-color:#faf8f6"/>
   <stop id="stop952" offset="1" style="stop-color:#f1f0e9"/>
  </linearGradient>
  <filter style="color-interpolation-filters:sRGB" id="filter11191" width="1.024" height="1.024" x="-.01" y="-.01">
   <feGaussianBlur id="feGaussianBlur11193" stdDeviation="1.12"/>
  </filter>
  <filter style="color-interpolation-filters:sRGB" id="filter11210" width="1.096" height="1.096" x="-.05" y="-.05">
   <feGaussianBlur id="feGaussianBlur11212" stdDeviation="4.48"/>
  </filter>
  <linearGradient id="linearGradient4614-5" x1="21.783" x2="107.217" y1="60.229" y2="60.229" gradientTransform="matrix(1.1119665,0,0,1.1119665,-11.941874,-15.557361)" gradientUnits="userSpaceOnUse" xlink:href="#linearGradient4620"/>
  <linearGradient id="linearGradient4620">
   <stop style="stop-color:#2be8c9" id="stop21" offset="0"/>
   <stop style="stop-color:#ffffff" id="stop23" offset="1"/>
  </linearGradient>
  <linearGradient id="linearGradient939" x1="150" x2="195" y1="106" y2="171" gradientTransform="matrix(1.0000492,0,0,1.0000492,-4.4322299,2.0370564)" gradientUnits="userSpaceOnUse" xlink:href="#linearGradient4620"/>
 </defs>
 <circle style="opacity:0.1;filter:url(#filter11210)" cx="128.752" cy="127.248" r="112"/>
 <circle style="opacity:0.1;filter:url(#filter11191)" cx="128.752" cy="125.248" r="112"/>
 <circle style="opacity:0.1" cx="128.752" cy="123.248" r="114"/>
 <circle style="fill:#3c5771" cx="-128.752" cy="-123.248" r="112" transform="scale(-1)"/>
 <path style="opacity:0.3;fill:#ffffff" d="M 128.752,11.248007 A 112,112 0 0 0 16.752,123.248 112,112 0 0 0 16.79302,124.41792 112,112 0 0 1 128.752,13.248007 112,112 0 0 1 240.71098,124.07808 a 112,112 0 0 0 0.041,-0.83008 112,112 0 0 0 -112,-111.999993 z"/>
 <path style="opacity:0.2" d="m 128.752,235.248 a 112,112 0 0 1 -112,-112 112,112 0 0 1 0.04102,-1.16992 A 112,112 0 0 0 128.752,233.248 112,112 0 0 0 240.71098,122.41792 a 112,112 0 0 1 0.041,0.83008 112,112 0 0 1 -112,112 z"/>
 <g style="enable-background:new" transform="matrix(4.2931454,0,0,4.2931454,-13.543252,-1006.613)">
  <path style="fill:none;stroke:url(#linearGradient4614-5);stroke-width:5.43581247" d="M 30.453262,91.060333 A 44.782093,44.782092 0 0 1 14.997872,57.216872 44.782093,44.782092 0 0 1 59.779967,12.434774 44.782093,44.782092 0 0 1 104.56206,57.216872 44.782093,44.782092 0 0 1 89.108269,91.058956" transform="matrix(0.49037779,0,0,0.49037779,3.829987,234.97387)"/>
  <path style="opacity:0.3;fill:url(#linearGradient939)" d="m 125.57422,68.255859 v 64.787111 l 1.71875,1.25 c 0.12172,-0.52367 0.8457,-3.64453 0.8457,-3.64453 l 43.13867,33.7207 A 60.002949,60.002949 0 0 0 183.57617,128.1582 60.002949,60.002949 0 0 0 125.57422,68.255859 Z" transform="matrix(0.26457031,0,0,0.26457031,-0.07844279,229.06261)"/>
  <g style="fill:#ffffff" transform="matrix(0.52338117,0,0,0.52338117,-0.62313518,228.37096)">
   <path style="fill:#ffffff" d="m 65.518735,29.4668 v 6 h -2 v -6 z"/>
   <g style="fill:#ffffff" transform="rotate(44.938255,63.882287,63.118069)">
    <path style="fill:#ffffff" d="m 66.816055,28.13496 v 6 h -2 v -6 z"/>
   </g>
   <g style="fill:#529be0" transform="rotate(141.07386,66.203264,64.783025)">
    <path style="fill:#529be0" d="m 65.614881,28.283085 0.411849,5.985849 -1.995283,0.137283 -0.411849,-5.985849 z"/>
   </g>
   <g style="fill:#ffffff" transform="rotate(180,64.384954,65.33387)">
    <path style="fill:#529be0" d="m 91.389269,39.983398 -4.461137,4.012262 -1.33742,-1.487046 4.461137,-4.012262 z"/>
    <g style="fill:#ffffff" transform="rotate(89.480687,63.007812,63.858199)">
     <path style="fill:#ffffff" d="m 65.058689,26.005739 -0.06351,5.999664 -1.999888,-0.02117 0.06351,-5.999664 z"/>
     <path style="fill:#ffffff" d="m 64.448825,93.288828 -0.06351,5.999664 -1.999888,-0.02117 0.06351,-5.999664 z"/>
    </g>
    <g style="fill:#ffffff" transform="rotate(136.63942,64.854851,64.899776)">
     <path style="fill:#ffffff" d="m 66.167865,28.910898 v 6 h -2 v -6 z"/>
    </g>
   </g>
  </g>
  <circle style="opacity:0.3" cx="61.077" cy="57.784" r="5.337" transform="matrix(0.49037779,0,0,0.49037779,3.829987,234.97387)"/>
  <path style="fill:#2ddab8" d="m 34.522122,263.24701 c 0,0 6.029364,4.69649 7.887039,6.38851 1.857672,1.69202 3.444006,3.52287 3.444006,3.52287 0,0 -2.095281,-1.08637 -4.337872,-2.60272 -2.24259,-1.51635 -8.912353,-6.75657 -8.912353,-6.75657 l 1.261927,-1.39337 z"/>
  <circle cx="33.411" cy="263.529" r="2.617"/>
  <g style="font-size:9.22643661px;line-height:1.25;letter-spacing:0px;word-spacing:0px;fill:#ffffff" transform="matrix(0.51465261,0,0,0.47450378,17.858811,86.627797)">
   <path style="fill:#ffffff" d="M 94.375 200.70508 C 92.702743 200.70508 91.421168 201.04718 90.529297 201.73242 C 89.637426 202.41767 89.191406 203.39651 89.191406 204.66992 C 89.191406 205.68637 89.510502 206.49416 90.148438 207.09375 C 90.792567 207.69333 91.807959 208.1302 93.195312 208.4043 L 94.580078 208.6875 C 95.422401 208.85881 95.983009 209.05254 96.261719 209.26953 C 96.546622 209.48652 96.689453 209.79558 96.689453 210.19531 C 96.689453 210.64072 96.481374 210.98282 96.066406 211.22266 C 95.651438 211.46249 95.053824 211.58203 94.273438 211.58203 C 93.505438 211.58203 92.706888 211.47481 91.876953 211.25781 C 91.053211 211.0351 90.198177 210.70547 89.3125 210.27148 L 89.3125 213.05664 C 90.198177 213.35929 91.083073 213.58605 91.96875 213.74023 C 92.854428 213.89442 93.737705 213.97266 94.617188 213.97266 C 96.481445 213.97266 97.865274 213.63057 98.769531 212.94531 C 99.679984 212.25436 100.13477 211.20344 100.13477 209.79297 C 100.13477 208.71942 99.810479 207.89106 99.160156 207.30859 C 98.509835 206.72614 97.413288 206.29138 95.871094 206.00586 L 94.347656 205.72266 C 93.623012 205.58561 93.120508 205.42477 92.841797 205.23633 C 92.569281 205.04218 92.433594 204.7723 92.433594 204.42969 C 92.433594 203.97286 92.638101 203.63693 93.046875 203.41992 C 93.455649 203.20293 94.086696 203.09375 94.941406 203.09375 C 95.585534 203.09375 96.271448 203.17408 96.996094 203.33398 C 97.720738 203.49387 98.462802 203.73085 99.224609 204.04492 L 99.224609 201.33789 C 98.363705 201.12663 97.531723 200.96999 96.726562 200.86719 C 95.921401 200.75868 95.136806 200.70508 94.375 200.70508 z M 136.20117 200.70508 C 133.89098 200.70508 132.05918 201.30068 130.70898 202.49414 C 129.35879 203.6819 128.68555 205.29749 128.68555 207.3418 C 128.68555 209.3804 129.35879 210.99793 130.70898 212.19141 C 132.05918 213.37917 133.89098 213.97266 136.20117 213.97266 C 136.97537 213.97266 137.71743 213.89232 138.42969 213.73242 C 139.14195 213.57254 139.82591 213.33555 140.48242 213.02148 L 140.48242 210.375 C 139.81971 210.79185 139.16757 211.09685 138.52344 211.29102 C 137.87931 211.48517 137.20054 211.58203 136.48828 211.58203 C 135.21241 211.58203 134.20936 211.20494 133.47852 210.45117 C 132.74768 209.6974 132.38281 208.6609 132.38281 207.3418 C 132.38281 206.01699 132.74768 204.97838 133.47852 204.22461 C 134.20936 203.47084 135.21241 203.09375 136.48828 203.09375 C 137.20054 203.09375 137.87931 203.1906 138.52344 203.38477 C 139.16757 203.57892 139.81971 203.88393 140.48242 204.30078 L 140.48242 201.6543 C 139.82591 201.34023 139.14195 201.10325 138.42969 200.94336 C 137.71743 200.78347 136.97537 200.70508 136.20117 200.70508 z M 101.63086 200.93555 L 101.63086 203.42773 L 106.23828 203.42773 L 106.23828 213.72461 L 109.81641 213.72461 L 109.81641 203.42773 L 114.41406 203.42773 L 114.41406 200.93555 L 101.63086 200.93555 z M 118.25195 200.93555 L 113.11328 213.72461 L 116.70898 213.72461 L 117.5918 211.39453 L 123.18555 211.39453 L 124.05859 213.72461 L 127.6543 213.72461 L 122.51562 200.93555 L 118.25195 200.93555 z M 143.45703 200.93555 L 143.45703 213.72461 L 153.3125 213.72461 L 153.3125 211.23047 L 147.0332 211.23047 L 147.0332 208.30273 L 152.74609 208.30273 L 152.74609 205.80859 L 147.0332 205.80859 L 147.0332 203.42773 L 153.10938 203.42773 L 153.10938 200.93555 L 143.45703 200.93555 z M 156.46289 200.93555 L 156.46289 213.72461 L 160.03906 213.72461 L 160.03906 208.88477 L 161.05273 208.88477 C 161.63493 208.88477 162.09847 209.00221 162.44531 209.23633 C 162.79834 209.47046 163.14568 209.90732 163.48633 210.54688 L 165.17773 213.72461 L 168.98633 213.72461 L 167.04492 210.0918 C 166.64854 209.35516 166.25543 208.80702 165.86523 208.44727 C 165.48123 208.08182 165.04398 207.84695 164.55469 207.74414 C 165.44656 207.48717 166.11299 207.08936 166.55273 206.54688 C 166.99867 206.00439 167.2207 205.30997 167.2207 204.46484 C 167.2207 203.24282 166.79416 202.34853 165.93945 201.7832 C 165.09094 201.21788 163.75288 200.93555 161.92578 200.93555 L 156.46289 200.93555 z M 160.03906 203.32617 L 161.54492 203.32617 C 162.29434 203.32617 162.83028 203.44991 163.15234 203.70117 C 163.4806 203.95243 163.64453 204.37066 163.64453 204.95312 C 163.64453 205.54129 163.4806 205.96374 163.15234 206.2207 C 162.83028 206.47766 162.29434 206.60547 161.54492 206.60547 L 160.03906 206.60547 L 160.03906 203.32617 z M 120.38867 203.93359 L 122.2832 209.02148 L 118.48438 209.02148 L 120.38867 203.93359 z" transform="matrix(0.45259549,0,0,0.49089061,-28.571095,311.57184)"/>
  </g>
 </g>
</svg>
